styles/1/Numix/32/places/green-folder-wine.svg

<?xml version="1.0" encoding="UTF-8" standalone="no"?>
<!-- Created with Inkscape (http://www.inkscape.org/) -->

<svg
   xmlns:dc="http://purl.org/dc/elements/1.1/"
   xmlns:cc="http://creativecommons.org/ns#"
   xmlns:rdf="http://www.w3.org/1999/02/22-rdf-syntax-ns#"
   xmlns:svg="http://www.w3.org/2000/svg"
   xmlns="http://www.w3.org/2000/svg"
   xmlns:sodipodi="http://sodipodi.sourceforge.net/DTD/sodipodi-0.dtd"
   xmlns:inkscape="http://www.inkscape.org/namespaces/inkscape"
   width="32"
   height="32"
   id="svg2"
   version="1.1"
   inkscape:version="0.91 r"
   sodipodi:docname="green-folder-wine.svg"
   inkscape:export-filename="/media/Data/Main/Visuals/Icons/Numix/Desktop/repos/numix-wiki/Gjorgi/Numix-folders/48/New/folder-144.png"
   inkscape:export-xdpi="270"
   inkscape:export-ydpi="270">
  <defs
     id="defs4" />
  <sodipodi:namedview
     id="base"
     pagecolor="#ffffff"
     bordercolor="#666666"
     borderopacity="1.0"
     inkscape:pageopacity="0.0"
     inkscape:pageshadow="2"
     inkscape:zoom="6.2511687"
     inkscape:cx="67.889413"
     inkscape:cy="-22.345795"
     inkscape:document-units="px"
     inkscape:current-layer="layer1"
     showgrid="true"
     inkscape:window-width="1280"
     inkscape:window-height="998"
     inkscape:window-x="0"
     inkscape:window-y="0"
     inkscape:window-maximized="1"
     showguides="true"
     inkscape:guide-bbox="true">
    <inkscape:grid
       type="xygrid"
       id="grid2985"
       empspacing="5"
       visible="true"
       enabled="true"
       snapvisiblegridlinesonly="true" />
  </sodipodi:namedview>
  <metadata
     id="metadata7">
    <rdf:RDF>
      <cc:Work
         rdf:about="">
        <dc:format>image/svg+xml</dc:format>
        <dc:type
           rdf:resource="http://purl.org/dc/dcmitype/StillImage" />
        <dc:title />
      </cc:Work>
    </rdf:RDF>
  </metadata>
  <g
     inkscape:label="Layer 1"
     inkscape:groupmode="layer"
     id="layer1"
     transform="translate(0,-1020.3622)">
    <path
       style="font-size:medium;font-style:normal;font-variant:normal;font-weight:normal;font-stretch:normal;text-indent:0;text-align:start;text-decoration:none;line-height:normal;letter-spacing:normal;word-spacing:normal;text-transform:none;direction:ltr;block-progression:tb;writing-mode:lr-tb;text-anchor:start;baseline-shift:baseline;color:#000000;fill:#66bb6a;fill-opacity:1;fill-rule:nonzero;stroke:none;stroke-width:2.28612947;marker:none;visibility:visible;display:inline;overflow:visible;enable-background:accumulate;font-family:Sans;-inkscape-font-specification:Sans"
       d="M 2.03125,4 C 1.466538,4.056 0.99079304,4.58885 1,5.15625 l 0,21.6875 C 0.993,27.45105 1.548958,28.007 2.15625,28 l 27.6875,0 C 30.451042,28.01 31.006984,27.45105 31,26.84375 L 31,7.15625 C 31.007,6.54895 30.451042,5.993 29.84375,6 L 19,6 19,5.15625 C 19.0069,4.55935 18.471863,4.0095 17.875,4 L 2.15625,4 z m 18.5,7 c 0.103639,-10e-4 0.212048,0.0073 0.3125,0.03125 0.642811,0.5625 1.160321,1.2503 1.53125,2 0.004,0.008 -0.004,0.02125 0,0.03125 0.0918,0.2483 0.21768,0.4961 0.3125,0.8125 0.0529,0.1766 0.11545,0.3684 0.1875,0.5625 C 22.954237,14.8216 23,15.2199 23,15.625 23,19.1517 19.843755,23 15.96875,23 12.341421,23 9.366686,19.5255 9,16.3125 c 0.097626,-0.0431 2.031639,-2.21105 5.90625,-0.59375 4.706105,1.9644 6.772945,0.0192 6.96875,-0.8125 C 22.070803,14.07465 21.814466,12.5 21.03125,12.5 c -0.783217,0 -1.755536,0.35675 -1.625,-0.59375 0.08159,-0.594 0.606808,-0.89625 1.125,-0.90625 z M 15.5,12 C 15.776142,12 16,12.2238 16,12.5 16,12.7762 15.776142,13 15.5,13 15.223858,13 15,12.7762 15,12.5 15,12.2238 15.223858,12 15.5,12 z m 2.5,1 c 0.552285,0 1,0.4477 1,1 0,0.5523 -0.447715,1 -1,1 -0.552285,0 -1,-0.4477 -1,-1 0,-0.5523 0.447715,-1 1,-1 z"
       transform="translate(0,1020.3622)"
       id="path3912"
       inkscape:connector-curvature="0"
       sodipodi:nodetypes="cccccccccccccccccccsscscsccssssssssss" />
  </g>
</svg>

<!-- Created with Inkscape (http://www.inkscape.org/) -->
<svg xmlns="http://www.w3.org/2000/svg" viewBox="0 0 32 32">
 <g transform="translate(0,-1020.3622)">
  <path d="m 2.031 4 c -0.565 0.056 -1.04 0.589 -1.031 1.156 l 0 21.688 c -0.007 0.607 0.549 1.163 1.156 1.156 l 27.688 0 c 0.607 0.01 1.163 -0.549 1.156 -1.156 l 0 -19.688 c 0.007 -0.607 -0.549 -1.163 -1.156 -1.156 l -10.844 0 0 -0.844 c 0.007 -0.597 -0.528 -1.147 -1.125 -1.156 l -15.719 0 z m 18.5 7 c 0.104 -0.001 0.212 0.007 0.313 0.031 0.643 0.563 1.16 1.25 1.531 2 0.004 0.008 -0.004 0.021 0 0.031 0.092 0.248 0.218 0.496 0.313 0.813 0.053 0.177 0.115 0.368 0.188 0.563 c 0.079 0.384 0.125 0.782 0.125 1.188 0 3.527 -3.156 7.375 -7.03 7.375 -3.627 0 -6.602 -3.474 -6.969 -6.688 c 0.098 -0.043 2.032 -2.211 5.906 -0.594 4.706 1.964 6.773 0.019 6.969 -0.813 c 0.196 -0.832 -0.061 -2.406 -0.844 -2.406 c -0.783 0 -1.756 0.357 -1.625 -0.594 0.082 -0.594 0.607 -0.896 1.125 -0.906 z m -5.03 1 c 0.276 0 0.5 0.224 0.5 0.5 0 0.276 -0.224 0.5 -0.5 0.5 -0.276 0 -0.5 -0.224 -0.5 -0.5 0 -0.276 0.224 -0.5 0.5 -0.5 z m 2.5 1 c 0.552 0 1 0.448 1 1 0 0.552 -0.448 1 -1 1 -0.552 0 -1 -0.448 -1 -1 0 -0.552 0.448 -1 1 -1 z" transform="translate(0,1020.3622)" style="visibility:visible;fill:#66bb6a;fill-opacity:1;stroke:none;display:inline;color:#000;fill-rule:nonzero"/>
 </g>
</svg>
